src/assets/icons/library.svg

<?xml version="1.0" encoding="UTF-8" standalone="no"?><!DOCTYPE svg PUBLIC "-//W3C//DTD SVG 1.1//EN" "http://www.w3.org/Graphics/SVG/1.1/DTD/svg11.dtd"><svg width="100%" height="100%" viewBox="0 0 576 512" version="1.1" xmlns="http://www.w3.org/2000/svg" xmlns:xlink="http://www.w3.org/1999/xlink" xml:space="preserve" xmlns:serif="http://www.serif.com/" style="fill-rule:evenodd;clip-rule:evenodd;stroke-linejoin:round;stroke-miterlimit:2;"><path d="M249.6,471.5c10.8,3.8 22.4,-4.1 22.4,-15.5l0,-377.4c0,-4.2 -1.6,-8.4 -5,-11c-19.6,-15.6 -64.6,-35.6 -123,-35.6c-50.5,0 -97.7,13.3 -125.9,24.1c-11.3,4.4 -18.1,15.6 -18.1,27.7l0,370.3c0,11.9 12.8,20.2 24.1,16.5c31.5,-10.5 81.4,-22.6 119.9,-22.6c33.9,0 79,14 105.6,23.5Zm76.8,0c26.6,-9.5 71.7,-23.5 105.6,-23.5c38.5,0 88.4,12.1 119.9,22.6c11.3,3.8 24.1,-4.6 24.1,-16.5l-0,-370.3c-0,-12.1 -6.8,-23.3 -18.1,-27.6c-28.2,-10.9 -75.4,-24.2 -125.9,-24.2c-58.4,0 -103.4,20 -123,35.6c-3.3,2.6 -5,6.8 -5,11l-0,377.4c-0,11.4 11.7,19.3 22.4,15.5Z" style="fill:#fff;fill-rule:nonzero;"/></svg>

<?xml version="1.0" encoding="utf-8"?>
<!-- Generator: Adobe Illustrator 28.3.0, SVG Export Plug-In . SVG Version: 6.00 Build 0)  -->
<svg version="1.1" id="Capa_1" xmlns="http://www.w3.org/2000/svg" xmlns:xlink="http://www.w3.org/1999/xlink" x="0px" y="0px"
	 viewBox="0 0 576 512" style="enable-background:new 0 0 576 512;" xml:space="preserve">
<style type="text/css">
	.st0{fill:#1D1D1B;}
</style>
<path class="st0" d="M249.6,471.5c10.8,3.8,22.4-4.1,22.4-15.5V78.6c0-4.2-1.6-8.4-5-11C247.4,52,202.4,32,144,32
	C93.5,32,46.3,45.3,18.1,56.1C6.8,60.5,0,71.7,0,83.8v370.3c0,11.9,12.8,20.2,24.1,16.5C55.6,460.1,105.5,448,144,448
	C177.9,448,223,462,249.6,471.5z M326.4,471.5C353,462,398.1,448,432,448c38.5,0,88.4,12.1,119.9,22.6c11.3,3.8,24.1-4.6,24.1-16.5
	V83.8c0-12.1-6.8-23.3-18.1-27.6C529.7,45.3,482.5,32,432,32c-58.4,0-103.4,20-123,35.6c-3.3,2.6-5,6.8-5,11V456
	C304,467.4,315.7,475.3,326.4,471.5L326.4,471.5z"/>
</svg>
